credit-card-settings-outline.svg

<svg fill="currentColor" viewBox="0 0 24 24"><path d="M20 8H4V6h16m0 12H4v-6h16m0-8H4c-1.11 0-2 .89-2 2v12a2 2 0 0 0 2 2h16a2 2 0 0 0 2-2V6a2 2 0 0 0-2-2M7 22h2v2H7zm4 0h2v2h-2zm4 0h2v2h-2z"/></svg>

<svg  viewBox="0 0 24 24" fill="currentColor"><path  d="M20,8H4V6H20M20,18H4V12H20M20,4H4C2.89,4 2,4.89 2,6V18A2,2 0 0,0 4,20H20A2,2 0 0,0 22,18V6C22,4.89 21.1,4 20,4M7,22H9V24H7V22M11,22H13V24H11V22M15,22H17V24H15V22Z"/></svg>
